_src/static/img/icon/rocket.svg

<svg width="64" height="64" viewBox="0 0 64 64" fill="none" xmlns="http://www.w3.org/2000/svg">
<path fill-rule="evenodd" clip-rule="evenodd" d="M63.3864 0.365691C63.6369 0.616666 63.7691 0.96267 63.7492 1.31696C63.5902 4.17466 62.6422 9.55478 61.4165 13.4539C59.059 21.3174 55.4467 27.7268 50.6787 32.5041C48.5989 34.5879 46.3854 36.5597 44.0916 38.3779C45.6184 46.1581 43.2215 54.0894 37.6072 59.7146C36.0299 61.295 34.2473 62.6405 32.3081 63.7141C31.2322 64.3096 30.0075 63.1235 30.6159 62.0197C33.364 57.0324 33.9793 51.1669 32.3659 45.7292C31.274 46.2097 30.2307 46.6016 29.2526 46.8949C28.2657 47.1922 27.1865 47.0392 26.2808 46.4671C25.9914 46.8311 25.6792 47.1825 25.345 47.5173C22.1398 50.7283 14.328 51.3803 13.9973 51.4066C13.9647 51.4091 13.9316 51.4105 13.899 51.4105C13.1753 51.4105 12.6009 50.7916 12.6583 50.0645C12.6845 49.7327 13.3363 41.9071 16.541 38.6961C16.862 38.3745 17.1981 38.0733 17.5464 37.7931C16.8494 36.8579 16.6184 35.6649 16.9491 34.5645C17.2414 33.5855 17.632 32.5406 18.1116 31.4471C12.684 29.8306 6.83043 30.4471 1.85281 33.2005C0.76623 33.8023 -0.442427 32.5996 0.161172 31.5051C1.23316 29.5621 2.57606 27.776 4.15339 26.1956C9.76769 20.5699 17.6831 18.1683 25.4486 19.698C27.2628 17.4003 29.2307 15.1825 31.3105 13.0986C40.9963 3.39396 56.1091 0.355945 62.437 0.00214358C62.7901 -0.0188116 63.1359 0.114717 63.3864 0.365691ZM5.91409 27.9597C5.50456 28.3696 5.11253 28.7955 4.73948 29.2351C9.40485 27.7107 14.4613 27.6722 19.2045 29.1727C20.4068 26.8618 21.9506 24.4037 23.7434 21.9427C17.1957 21.0416 10.6422 23.2219 5.91409 27.9597ZM23.5843 45.7531C21.8723 47.4685 17.8548 48.373 15.3163 48.7424C15.684 46.201 16.5858 42.1795 18.3017 40.4602C18.6145 40.1469 18.9442 39.8584 19.2871 39.5952L24.4472 44.7653C24.185 45.1089 23.8971 45.4393 23.5843 45.7531ZM27.3708 44.1664C27.6923 44.4885 28.15 44.6215 28.5371 44.5051C29.4652 44.2268 30.4642 43.8486 31.5177 43.3779C30.4627 40.9183 28.9613 38.7034 27.0425 36.7799C25.1232 34.8579 22.9126 33.3535 20.4579 32.2965C19.988 33.352 19.6111 34.3525 19.3338 35.2814C19.2171 35.6708 19.3494 36.1298 19.6714 36.4519L27.3708 44.1664ZM35.8465 57.9505C35.4369 58.3608 35.0123 58.7531 34.5731 59.1269C36.095 54.4524 36.1334 49.3862 34.6359 44.6337C36.9418 43.429 39.3951 41.8823 41.8513 40.086C42.7512 46.6469 40.5746 53.2127 35.8465 57.9505ZM33.7555 42.2794C39.1412 39.4159 44.6223 35.0436 48.918 30.74C53.2516 26.3974 56.5809 20.5767 58.8188 13.43L50.3475 4.9422C43.2147 7.18489 37.4053 10.5202 33.0712 14.8628C28.776 19.1664 24.4121 24.6586 21.5542 30.0548C24.2536 31.2331 26.6874 32.8974 28.8032 35.0158C30.918 37.1357 32.579 39.5748 33.7555 42.2794ZM59.6052 10.6893L53.0829 4.15419C56.5615 3.24337 59.4793 2.81745 61.1271 2.62934C60.9394 4.28041 60.5148 7.2039 59.6052 10.6893ZM41.8762 13.0981C39.4428 15.5348 39.4413 19.4802 41.8757 21.9178C44.3085 24.3569 48.2458 24.3574 50.6787 21.9178C53.1111 19.4807 53.1116 15.5363 50.6787 13.0986C48.2463 10.6615 44.309 10.6605 41.8762 13.0981ZM48.918 20.1542H48.9175C47.4584 21.6172 45.0975 21.6186 43.6364 20.1537C42.1763 18.6917 42.1753 16.3257 43.6369 14.8628C45.0965 13.4003 47.4579 13.4003 48.918 14.8628C50.3771 16.3248 50.3776 18.6912 48.918 20.1542ZM34.8334 16.6264C34.3465 17.1128 34.3465 17.9037 34.8334 18.3901C35.3188 18.8779 36.1067 18.8779 36.5936 18.3901C37.079 17.9037 37.079 17.1128 36.5936 16.6264C36.1067 16.1386 35.3188 16.1386 34.8334 16.6264ZM33.1378 20.2205C32.6159 19.7716 31.8299 19.8316 31.382 20.3545C30.0016 21.9661 27.4661 25.007 25.9909 27.2682C25.6145 27.8447 25.776 28.6181 26.3518 28.9948C26.9297 29.373 27.7001 29.2078 28.0751 28.6332C29.525 26.4105 32.1918 23.2395 33.2716 21.9797C33.7195 21.4568 33.6592 20.6693 33.1378 20.2205ZM2.1315 63.5046L9.91409 55.7063C10.4005 55.2195 10.4005 54.4295 9.91409 53.9422C9.42771 53.4554 8.63977 53.4554 8.15339 53.9422L0.370802 61.74C-0.115579 62.2273 -0.115579 63.0173 0.370802 63.5046C0.857184 63.9914 1.64512 63.9914 2.1315 63.5046ZM22.3645 55.7063L14.5819 63.5046C14.0955 63.9914 13.3076 63.9914 12.8207 63.5046C12.3348 63.0173 12.3348 62.2273 12.8207 61.74L20.6033 53.9422C21.0902 53.4554 21.8781 53.4554 22.3645 53.9422C22.8504 54.4295 22.8504 55.2195 22.3645 55.7063ZM0.370802 51.0299C0.857184 51.5168 1.64512 51.5168 2.1315 51.0299L9.91409 43.2322C10.4005 42.7448 10.4005 41.9549 9.91409 41.468C9.42771 40.9807 8.63977 40.9807 8.15339 41.468L0.370802 49.2658C-0.115579 49.7526 -0.115579 50.5426 0.370802 51.0299Z" fill="url(#paint0_linear)"/>
<defs>
<linearGradient id="paint0_linear" x1="-31.8756" y1="31.9368" x2="31.9978" y2="95.6878" gradientUnits="userSpaceOnUse">
<stop stop-color="#F0CD46"/>
<stop offset="1" stop-color="#EE5768"/>
</linearGradient>
</defs>
</svg>

<svg width="64" height="64" fill="none" xmlns="http://www.w3.org/2000/svg"><path fill-rule="evenodd" clip-rule="evenodd" d="M63.386.366c.25.25.383.597.363.951-.159 2.858-1.107 8.238-2.333 12.137-2.357 7.863-5.97 14.273-10.737 19.05a76.28 76.28 0 01-6.587 5.874c1.526 7.78-.87 15.711-6.485 21.337a23.717 23.717 0 01-5.299 4c-1.076.595-2.3-.592-1.692-1.695a21.23 21.23 0 001.75-16.29 27.19 27.19 0 01-3.113 1.165 3.609 3.609 0 01-2.972-.428c-.29.364-.602.715-.936 1.05-3.205 3.211-11.017 3.863-11.348 3.89a1.247 1.247 0 01-1.339-1.342c.027-.332.678-8.158 3.883-11.369.321-.322.657-.623 1.005-.903-.697-.935-.928-2.128-.597-3.228.292-.98.683-2.024 1.163-3.118A21.115 21.115 0 001.852 33.2c-1.086.602-2.294-.6-1.69-1.695a23.772 23.772 0 013.991-5.31c5.615-5.625 13.53-8.027 21.296-6.497a76.325 76.325 0 015.861-6.6C40.996 3.395 56.11.357 62.438.003a1.24 1.24 0 01.95.364zM5.914 27.96c-.41.41-.801.835-1.175 1.275a23.622 23.622 0 0114.465-.062c1.203-2.311 2.747-4.77 4.54-7.23-6.548-.901-13.102 1.279-17.83 6.017zm17.67 17.793c-1.712 1.715-5.73 2.62-8.268 2.99.368-2.542 1.27-6.564 2.986-8.283.313-.313.642-.602.985-.865l5.16 5.17c-.262.344-.55.674-.863.988zm3.787-1.587c.321.323.779.456 1.166.34a24.94 24.94 0 002.98-1.128 21.048 21.048 0 00-4.474-6.598 21.003 21.003 0 00-6.585-4.483 24.981 24.981 0 00-1.124 2.984c-.117.39.015.849.337 1.17l7.7 7.715zm8.476 13.785c-.41.41-.835.802-1.274 1.176a23.753 23.753 0 00.063-14.493c2.306-1.205 4.76-2.752 7.215-4.548a21.124 21.124 0 01-6.005 17.864zm-2.092-15.672c5.386-2.863 10.867-7.235 15.163-11.539 4.334-4.343 7.663-10.163 9.9-17.31l-8.47-8.488c-7.133 2.243-12.943 5.578-17.277 9.92-4.295 4.304-8.659 9.797-11.517 15.193a23.474 23.474 0 017.25 4.96 23.528 23.528 0 014.951 7.264zm25.85-31.59l-6.522-6.535a58.715 58.715 0 018.044-1.525 58.942 58.942 0 01-1.522 8.06zM41.876 13.1a6.24 6.24 0 000 8.819 6.21 6.21 0 008.803 0 6.241 6.241 0 000-8.82 6.212 6.212 0 00-8.803 0zm7.042 7.055a3.724 3.724 0 01-5.282 0 3.742 3.742 0 010-5.291 3.727 3.727 0 015.282 0 3.745 3.745 0 010 5.291zm-14.085-3.528a1.247 1.247 0 000 1.764 1.242 1.242 0 001.76 0 1.25 1.25 0 000-1.764 1.242 1.242 0 00-1.76 0zm-1.695 3.595a1.243 1.243 0 00-1.756.134c-1.38 1.611-3.916 4.652-5.391 6.913a1.248 1.248 0 00.36 1.727 1.244 1.244 0 001.724-.362c1.45-2.223 4.117-5.393 5.197-6.653a1.25 1.25 0 00-.134-1.76zM2.132 63.505l7.782-7.799a1.249 1.249 0 000-1.764 1.244 1.244 0 00-1.76 0L.37 61.74a1.25 1.25 0 000 1.765 1.244 1.244 0 001.76 0zm20.232-7.799l-7.782 7.799a1.245 1.245 0 01-1.761 0 1.25 1.25 0 010-1.765l7.782-7.798a1.245 1.245 0 011.761 0 1.25 1.25 0 010 1.764zM.372 51.03a1.244 1.244 0 001.76 0l7.783-7.798a1.249 1.249 0 000-1.764 1.243 1.243 0 00-1.76 0L.37 49.266a1.249 1.249 0 000 1.764z" fill="url(#paint0_linear)"/><defs><linearGradient id="paint0_linear" x1="-31.876" y1="31.937" x2="31.998" y2="95.688" gradientUnits="userSpaceOnUse"><stop stop-color="#F0CD46"/><stop offset="1" stop-color="#EE5768"/></linearGradient></defs></svg>
